X:18
T:Favourite March in Volentine, A. TJD.18
M:4/4
L:1/8
Q:1/4=120
S:T.J.Dixon MS1
R:march
A:Lincolnshire, Holton le Moor
Z:Vmp.R.Greig2010
K:G
G2 (d>d) (3ded (3cBA|B2(g>g)g2f2|e2d2c2B2|A2(A>A) A>cB>A|!
G2 (d>d) (3ded (3cBA|B2(g>g)g2f2|(fe)(ge) (ed)(dc)|d2(d>d)d2:|!
|:D2|d2(c>c)c2D2|c2(B>B)B2(cd)|E2FG A>B c/B/A/G/|\
F2(D>D)”_bar line missing in MS” DDEF|!
GGBG EEcA|FFdB GGec|B/g/f/g/ f/e/d/c/B2A2|G2(G>G)G2|]

